X:1
T:7th Symphony
T:7th Symphony
T:2nd Movement
T:Ludwig van Beethoven
C:Ludwig van Beethoven
%%score 1 2
L:1/8
M:2/4
K:G
V:1 treble nm="Hegedű" snm="Heg."
V:2 treble-8 nm="Klasszikus gitár" snm="Git."
V:1
 z4 | z4 | z4 | z4 | z4 | z4 | z4 | z4 | z4 | z4 | z4 | z4 | z4 | z4 | z4 | z4 | z4 | z4 | z4 | %19
 z4 | G4 | F4 |{FG} A3 G/F/ | FG G2 | G3 G/A/ | ^AB BB |{AB} c3 B/A/ | AB B2 | B4 | ^A4 | %30
 =AF/^G/ AB/A/ | A^G =G2 | G4 | F2 G2 |{FG} A3 G/F/ | EE/F/ GG/A/ | B4 | ^A4 | =AF/^G/ AB/A/ | %39
 A^G =G2 | G4 | F2 G2 |{FG} A3 G/F/ | E2 z2 | g4 | f4 |{fg} a3 g/f/ | fg g2 | g3 G/A/ | ^AB BB | %50
{=AB} c3 B/A/ | AB B2 | B2 b2 | ^a4 | =af/^g/ ab/a/ | a^g =g2 | g4 | f2 g2 |{fg} a3 g/f/ | %59
 eE/F/ GG/A/ | B2 b2 | ^a4 | =af/^g/ ab/a/ | a^g =g2 | g4 | f2 g2 |{fg} a3 g/f/ | e2 z2 | %68
{FG} A3 G/F/ | E2 z2 | z4 | z4 |] %72
V:2
 [EGBe]2 [EGBe][EGBe] | [^DFB]2 [^DFB]2 | [^CEB]2 [^CEB][^CEB] | [EGBe]2 [EGBe]2 | %4
 [EGB]2 [EGB][EG^c] | [DGBd]2 [DGBd]2 | [FAd]2 [EGd][FAd] | [GBd]2 z2 | [GBd]2 [GBd][GBe] | %9
 [F^Af]2 [F^Af]2 | [F=A^c]2 [FA^c][FA^d] | [E^GBe]2 [E=GBe]2 | [B,FB]2 [B,F^c][B,FB^d] | %13
 [EGBe]2 z2 | [GBd]2 [GBd][GBe] | [F^Af]2 [F^Af]2 | [F=A^c]2 [FA^c][FA^d] | [E^GBe]2 [E=GBe]2 | %18
 [B,FB]2 [B,F^c][B,FB^d] | [EGBe]2 z2 | [E,GB]B, [EB]B | [^DB]F [^DB]2 | [B,B]^D [AB]B | %23
 [E,GB]B, [EB]2 | [E,GB]B, [EB]^d | [Dd]G [Bd]G | [Dd]F [Ad][Fd] | [G,d]D [Gd]D | [G,d]D [Gd]e | %29
 [Ff]^A [^cf]A | [F,^c]F [A^c]^d | [E,^Ge]B, [E=Ge]B, | [E,Be]B, [Fe]e | [^DB]F [GB]E | %34
 [B,AB]^G [A^c]^d | [Ee]B G2 | [E,GB]B, [EB]B | [^DB]F [^DB]2 | [B,B]^D [AB]B | [E,GB]B, [EB]2 | %40
 [E,GB]B, [EB]^d | [Dd]G [Bd]G | [Dd]F [Ad][Fd] | [G,d]D [Gd]D | [G,d]D [Gd]e | [Ff]^A [^cf]A | %46
 [F,^c]F [A^c]^d | [E,^Ge]B, [E=Ge]B, | [E,Be]B, [Fe]e | [^DB]F [GB]E | [B,AB]^G [A^c]^d | %51
 [Ee]B G2 | [E,GB]B, [EB]B | [^DB]F [^DB]2 | [B,B]^D [AB]B | [E,GB]B, [EB]2 | [E,GB]B, [EB]^d | %57
 [Dd]G [Bd]G | [Dd]F [Ad][Fd] | [G,d]D [Gd]D | [G,d]D [Gd]e | [Ff]^A [^cf]A | [F,^c]F [A^c]^d | %63
 [E,^Ge]B, [E=Ge]B, | [E,Be]B, [Fe]e | [^DB]F [GB]E | [B,AB]^G [A^c]^d | [EGBe]4 | %68
 [B,FA]2 [^CFA][^DFA] | [E,B,EG]2 ^C^D | [EGBe]2 ^c^d | [GBe]4 |] %72

